symbols/web/breakfast_dining/materialsymbolsoutlined/breakfast_dining_wght100grad200fill1_48px.svg

<svg xmlns="http://www.w3.org/2000/svg" height="48" width="48"><path d="M11.75 40.2q-.7 0-1.225-.5Q10 39.2 10 38.45V19.6q-1.7-.95-2.95-2.375Q5.8 15.8 5.8 13.7q0-2.5 1.7-4.2 1.7-1.7 4.2-1.7h24.6q2.5 0 4.2 1.7 1.7 1.7 1.7 4.2 0 2.1-1.25 3.525Q39.7 18.65 38 19.6v18.85q0 .75-.525 1.25t-1.225.5Zm11.4-6.35q.35.45.825.45t.925-.45l7.05-6.95q.35-.35.35-.8 0-.45-.35-.9l-7.05-7.05q-.45-.35-.925-.35-.475 0-.825.35L16.2 25.2q-.4.4-.425.875-.025.475.425.825Zm.9-1.55-6.15-6.15 6.15-6.3 6.25 6.3Z"/></svg>

<svg xmlns="http://www.w3.org/2000/svg" height="48" width="48"><path d="M11.75 40.2Q11.05 40.2 10.525 39.7Q10 39.2 10 38.45V19.6Q8.3 18.65 7.05 17.225Q5.8 15.8 5.8 13.7Q5.8 11.2 7.5 9.5Q9.2 7.8 11.7 7.8H36.3Q38.8 7.8 40.5 9.5Q42.2 11.2 42.2 13.7Q42.2 15.8 40.95 17.225Q39.7 18.65 38 19.6V38.45Q38 39.2 37.475 39.7Q36.95 40.2 36.25 40.2ZM23.15 33.85Q23.5 34.3 23.975 34.3Q24.45 34.3 24.9 33.85L31.95 26.9Q32.3 26.55 32.3 26.1Q32.3 25.65 31.95 25.2L24.9 18.15Q24.45 17.8 23.975 17.8Q23.5 17.8 23.15 18.15L16.2 25.2Q15.8 25.6 15.775 26.075Q15.75 26.55 16.2 26.9ZM24.05 32.3 17.9 26.15 24.05 19.85 30.3 26.15Z"/></svg>
